resources/icons/20px/vertical-bar-chart-desc.svg

<svg xmlns="http://www.w3.org/2000/svg" viewBox="0 0 20 20">
  <path d="M3 0H2c-.55 0-1 .45-1 1v18c0 .55.45 1 1 1h1c.55 0 1-.45 1-1V1c0-.55-.45-1-1-1m5 4H7c-.55 0-1 .45-1 1v14c0 .55.45 1 1 1h1c.55 0 1-.45 1-1V5c0-.55-.45-1-1-1m5 3h-1c-.55 0-1 .45-1 1v11c0 .55.45 1 1 1h1c.55 0 1-.45 1-1V8c0-.55-.45-1-1-1m5 2h-1c-.55 0-1 .45-1 1v9c0 .55.45 1 1 1h1c.55 0 1-.45 1-1v-9c0-.55-.45-1-1-1"/>
</svg>

<?xml version="1.0" encoding="utf-8"?>
<!-- Generator: Adobe Illustrator 18.0.0, SVG Export Plug-In . SVG Version: 6.00 Build 0)  -->
<svg version="1.1" id="Layer_1" xmlns="http://www.w3.org/2000/svg" xmlns:xlink="http://www.w3.org/1999/xlink" x="0px" y="0px"
	 viewBox="0 0 20 20" enable-background="new 0 0 20 20" xml:space="preserve">
<g id="histogram_vertical_descending_1_">
	<g>
		<path fill-rule="evenodd" clip-rule="evenodd" d="M3,0H2C1.45,0,1,0.45,1,1v18c0,0.55,0.45,1,1,1h1c0.55,0,1-0.45,1-1V1
			C4,0.45,3.55,0,3,0z M8,4H7C6.45,4,6,4.45,6,5v14c0,0.55,0.45,1,1,1h1c0.55,0,1-0.45,1-1V5C9,4.45,8.55,4,8,4z M13,7h-1
			c-0.55,0-1,0.45-1,1v11c0,0.55,0.45,1,1,1h1c0.55,0,1-0.45,1-1V8C14,7.45,13.55,7,13,7z M18,9h-1c-0.55,0-1,0.45-1,1v9
			c0,0.55,0.45,1,1,1h1c0.55,0,1-0.45,1-1v-9C19,9.45,18.55,9,18,9z"/>
	</g>
</g>
</svg>
